X: 1
T: Larach Alastair
M: 6/8
L: 1/8
R: jig
K: Dmaj
|: ABA a2e | f2d ecA | ABA a2e | g2e dBG | 
ABA a2e | f2d efg | agf g2e | d2g dBG  :|
|: A2e c2e | A2f ecA | A2e c2e | B2g dBG |
A2e c2e | d2e B2g | agf g2e | d2g dBG |
A2e c2e | A2f ecA | A2e c2e | B2g dBG |
A3 c2A | d2e g2e | agf g2e | d2g dBG ||
